!!!!SEGMENT: pl-sa--131-a-iii-31--004_luna-georgius--vesperae-laudate-pueri.krn
!!!cenid: 17xx:492
!!!COM: Luna, Georgius
!!!COM-rismID: pe41010079
!!!CDT:
!!!CNT:
!!!OPR: Vesperae
!!!OTL: Laudate pueri
!!!OMV: 004
!!!PDT:
!!!AGN: Sacred; Vespers
!!!SMS-siglum: PL-SA
!!!SMS-shelfmark: 131/A III 31
!!!SMS-shelfwork: 001-004 M
!!!SMS-variant: Basso: PL-SA 131/A III 31:15
!!!SMS-altvar: Basso: PL-SA 131/A III 31:43
!!!NIFC-rismSourceID: 1001070694
!!!NIFC-islandoraID:
!!!URL-pdf-islandora:
!!!URL-scan: https://bc.bdsandomierz.pl/dlibra/publication/1488/edition/1456/content @EN{Scan in the Sandomierz Diocese Digital Library} @PL{Skany w portalu Cyfrowa Biblioteka Diecezjalna w Sandomierzu}
!!!ONB-nifc: UWAGA: części Vesperae: Dixit Dominus, Confitebor, Beatus vir, Laudate pueri,
!!!AIN: 2 empty 1 tenor 2 tromp 2 violn 1 vox
!!!key:
**kern	**kern	**kern	**kern	**text	**kern	**text	**kern	**text	**kern	**kern
*part8	*part7	*part6	*part5	*part5	*part4	*part4	*part3	*part3	*part2	*part1
*staff8	*staff7	*staff6	*staff5	*staff5	*staff4	*staff4	*staff3	*staff3	*staff2	*staff1
*group4	*group3	*group3	*group2	*	*group2	*	*group2	*	*group1	*group1
*Iempty	*Ivioln	*Ivioln	*Iempty	*	*Itenor	*	*Ivox	*	*Itromp	*Itromp
*I"Fondamento	*I"Violino Secundo	*I"Violino Primo	*I"Baſso	*	*I"Tenore	*	*I"Canto	*	*I"Tromba Secunda Ex C.	*I"Tromba Prima Ex C:
*I'Fond.	*I'Vl-no II	*I'Vl-no I	*I'B	*	*I'T	*	*I'C	*	*I'Tr II	*I'Tr I
*clefF4	*clefG2	*clefG2	*clefF4	*	*clefC4	*	*clefC1	*	*clefG2	*clefG2
*k[]	*k[]	*k[]	*k[]	*	*k[]	*	*k[]	*	*k[]	*k[]
*C:	*C:	*C:	*C:	*	*C:	*	*C:	*	*C:	*C:
*M4/4	*M4/4	*M4/4	*M4/4	*	*M4/4	*	*M4/4	*	*M4/4	*M4/4
*met(c)	*met(c)	*met(c)	*met(c)	*	*met(c)	*	*met(c)	*	*met(c)	*met(c)
=1	=1	=1	=1	=1	=1	=1	=1	=1	=1	=1
!LO:TX:b:t=Laudate pueri	!LO:TX:b:t=Laudate Pueri	!LO:TX:b:t=Laudate Pueri	!	!	!	!	!	!	!LO:TX:b:t=Laudate Pueri	!
!LO:TX:a:t=All(egr)o'	!LO:TX:a:t=All(egr)o'	!LO:TX:a:t=All(egr)o'	!LO:TX:a:t=All(egr)o'	!	!LO:TX:a:t=All(egr)o'	!	!	!	!LO:TX:a:t=All(egr)o'	!
8C\L	4ccc\	4ccc\	00r	.	00r	.	00r	.	4cc\	4ee\
8C\	.	.	.	.	.	.	.	.	.	.
8E\	16cc\LL	16cc\LL	.	.	.	.	.	.	4r	4r
.	16dd\	16dd\	.	.	.	.	.	.	.	.
8D\J	16ee\	16ee\	.	.	.	.	.	.	.	.
.	16ff\JJ	16ff\JJ	.	.	.	.	.	.	.	.
8C\L	16gg\LL	16gg\LL	.	.	.	.	.	.	8r	8r
.	16ee\J	16ee\J	.	.	.	.	.	.	.	.
8C\	8cc\J	8cc\J	.	.	.	.	.	.	8ee\	8gg\
8C\	16aa\LL	16aa\LL	.	.	.	.	.	.	8ff\L	8aa\L
.	16ff\J	16ff\J	.	.	.	.	.	.	.	.
8C\J	8cc\J	8cc\J	.	.	.	.	.	.	8ff\J	8aa\J
=2	=2	=2	=2	=2	=2	=2	=2	=2	=2	=2
8C\L	16gg\LL	16gg\LL	.	.	.	.	.	.	4ee\	4gg\
.	16ee\J	16ee\J	.	.	.	.	.	.	.	.
8C\	8cc\J	8cc\J	.	.	.	.	.	.	.	.
8E\	16cc\LL	16cc\LL	.	.	.	.	.	.	4r	4r
.	16dd\	16dd\	.	.	.	.	.	.	.	.
8D\J	16ee\	16ee\	.	.	.	.	.	.	.	.
.	16ff\JJ	16ff\JJ	.	.	.	.	.	.	.	.
8C\L	16gg\LL	16gg\LL	.	.	.	.	.	.	8r	8r
.	16ee\J	16ee\J	.	.	.	.	.	.	.	.
8C\	8cc\J	8cc\J	.	.	.	.	.	.	8ee\	8gg\
8C\	16aa\LL	16aa\LL	.	.	.	.	.	.	8ff\L	8aa\L
.	16ff\J	16ff\J	.	.	.	.	.	.	.	.
8C\J	8cc\J	8cc\J	.	.	.	.	.	.	8ff\J	8aa\J
=3	=3	=3	=3	=3	=3	=3	=3	=3	=3	=3
8C\L	16gg\LL	16gg\LL	.	.	.	.	.	.	8ee\L	8gg\L
.	16ee\J	16ee\J	.	.	.	.	.	.	.	.
8C\	8cc\J	8cc\J	.	.	.	.	.	.	16ee\L	16gg\L
.	.	.	.	.	.	.	.	.	16ee\JJ	16gg\JJ
8E\	8r	8r	.	.	.	.	.	.	8ee\L	8gg\L
8E\J	8ccc\	8ccc\	.	.	.	.	.	.	8ee\J	8gg\J
8F\L	16dd\LL	16dd\LL	.	.	.	.	.	.	4dd\	4ff\
.	16cc\	16cc\	.	.	.	.	.	.	.	.
8F\	16b\	16b\	.	.	.	.	.	.	.	.
.	16a\JJ	16a\JJ	.	.	.	.	.	.	.	.
!	!LO:TX:a:t=problem:mixed beam	!LO:TX:a:t=problem:mixed beam	!	!	!	!	!	!	!	!
8G\	8g/L	8g/L	.	.	.	.	.	.	4g/	4dd\
8G\J	8ff\J	8ff\J	.	.	.	.	.	.	.	.
=4	=4	=4	=4	=4	=4	=4	=4	=4	=4	=4
8C\L	4ee\	4ee\	.	.	.	.	.	.	8cc\L	8ee\L
8D\	.	.	.	.	.	.	.	.	8cc\J	8ee\J
8E\	8r	8r	.	.	.	.	.	.	4cc\	4ee\
8C\J	8gg\	8gg\	.	.	.	.	.	.	.	.
8F\L	(8gg\L	4aa\	.	.	.	.	.	.	2r	2r
8D\	8ff\)	.	.	.	.	.	.	.	.	.
8E\	(8ff\	4gg\	.	.	.	.	.	.	.	.
8C\J	8ee\J)	.	.	.	.	.	.	.	.	.
=5	=5	=5	=5	=5	=5	=5	=5	=5	=5	=5
!LO:TX:a:t=problem:mixed beam	!	!	!	!	!	!	!	!	!	!
8D\L	8ee\L	4ff\	00r	.	00r	.	00r	.	1r	1r
8GG/	8dd\J	.	.	.	.	.	.	.	.	.
8C/	8cc\L	4ee\	.	.	.	.	.	.	.	.
8E/J	8gg\J	.	.	.	.	.	.	.	.	.
8F\L	(8gg\L	4aa\	.	.	.	.	.	.	.	.
8D\	8ff\)	.	.	.	.	.	.	.	.	.
8E\	(8ff\	4gg\	.	.	.	.	.	.	.	.
8C\J	8ee\J)	.	.	.	.	.	.	.	.	.
=6	=6	=6	=6	=6	=6	=6	=6	=6	=6	=6
!LO:TX:a:t=problem:mixed beam	!	!	!	!	!	!	!	!	!	!
8D\L	8ee\L	4ff\	.	.	.	.	.	.	2r	2r
8GG/	8dd\J	.	.	.	.	.	.	.	.	.
8C/	8cc\L	8ee\L	.	.	.	.	.	.	.	.
8C/J	8gg\J	8gg\J	.	.	.	.	.	.	.	.
8C\L	16gg\LL	16gg\LL	.	.	.	.	.	.	4cc\	4ee\
.	16ff\	16ff\	.	.	.	.	.	.	.	.
8C\	16ee\	16ee\	.	.	.	.	.	.	.	.
.	16dd\JJ	16dd\JJ	.	.	.	.	.	.	.	.
8E\	16cc\LL	16cc\LL	.	.	.	.	.	.	4r	4r
.	16b-X\	16b-X\	.	.	.	.	.	.	.	.
8E\J	16a\	16a\	.	.	.	.	.	.	.	.
.	16g\JJ	16g\JJ	.	.	.	.	.	.	.	.
=7	=7	=7	=7	=7	=7	=7	=7	=7	=7	=7
8F\L	16f/LL	16f/LL	.	.	.	.	.	.	8cc\L	8ff\L
.	16e/JJ	16e/JJ	.	.	.	.	.	.	.	.
8G\	4f/	4f/	.	.	.	.	.	.	16cc\L	16ff\L
.	.	.	.	.	.	.	.	.	16cc\JJ	16ff\JJ
8A\	.	.	.	.	.	.	.	.	8cc\L	8ff\L
8F\J	8aa\	8aa\	.	.	.	.	.	.	8cc\J	8ff\J
8D\L	16aa\LL	16aa\LL	.	.	.	.	.	.	4dd\	4ff#X\
.	16gg\	16gg\	.	.	.	.	.	.	.	.
8D\	16ff#X\	16ff#X\	.	.	.	.	.	.	.	.
.	16ee\JJ	16ee\JJ	.	.	.	.	.	.	.	.
8F#X\	16dd\LL	16dd\LL	.	.	.	.	.	.	4r	4r
.	16cc\	16cc\	.	.	.	.	.	.	.	.
8F#\J	16b\	16b\	.	.	.	.	.	.	.	.
.	16a\JJ	16a\JJ	.	.	.	.	.	.	.	.
!	!LO:LB:g=original	!LO:LB:g=original	!	!	!	!	!	!	!	!
=8	=8	=8	=8	=8	=8	=8	=8	=8	=8	=8
8G\L	16g/LL	16g/LL	.	.	.	.	.	.	8dd\L	8gg\L
.	16f#X/JJ	16f#X/JJ	.	.	.	.	.	.	.	.
8A\	4g/	4g/	.	.	.	.	.	.	16dd\L	16gg\L
.	.	.	.	.	.	.	.	.	16dd\JJ	16gg\JJ
8B\	.	.	.	.	.	.	.	.	4dd\	4gg\
8E\J	8g/	8g/	.	.	.	.	.	.	.	.
8Fn\L	16a/LL	16a\LL	.	.	.	.	.	.	2r	2r
.	32b/L	32b\L	.	.	.	.	.	.	.	.
.	32cc/J	32cc\J	.	.	.	.	.	.	.	.
8F\	16dd/	16dd\	.	.	.	.	.	.	.	.
.	16cc/JJ	16cc\JJ	.	.	.	.	.	.	.	.
8G\	16b\LL	16b\LL	.	.	.	.	.	.	.	.
.	32cc\L	32cc\L	.	.	.	.	.	.	.	.
.	32dd\J	32dd\J	.	.	.	.	.	.	.	.
8G\J	16ee\	16ee\	.	.	.	.	.	.	.	.
.	16dd\JJ	16dd\JJ	.	.	.	.	.	.	.	.
!LO:LB:g=original	!	!	!	!	!	!	!	!	!	!
=9	=9	=9	=9	=9	=9	=9	=9	=9	=9	=9
8A\L	16cc\LL	16cc\LL	0r	.	0r	.	0r	.	2r	2r
.	32dd\L	32dd\L	.	.	.	.	.	.	.	.
.	32ee\J	32ee\J	.	.	.	.	.	.	.	.
8A\	16ff\	16ff\	.	.	.	.	.	.	.	.
.	16ee\JJ	16ee\JJ	.	.	.	.	.	.	.	.
8B\	16dd\LL	16dd\LL	.	.	.	.	.	.	.	.
.	32ee\L	32ee\L	.	.	.	.	.	.	.	.
.	32ff\J	32ff\J	.	.	.	.	.	.	.	.
8B\J	16gg\	16gg\	.	.	.	.	.	.	.	.
.	16ff\JJ	16ff\JJ	.	.	.	.	.	.	.	.
!LO:TX:a:t=problem:mixed beam	!	!	!	!	!	!	!	!	!	!
8c\L	8ee\L	8ee\L	.	.	.	.	.	.	8r	8r
8C/	8ccc\	8ccc\	.	.	.	.	.	.	8cc\L	8ee\L
8E/	8ccc\	8ccc\	.	.	.	.	.	.	8cc\	8ee\
8G/J	8ccc\J	8ccc\J	.	.	.	.	.	.	8cc\J	8ee\J
=10	=10	=10	=10	=10	=10	=10	=10	=10	=10	=10
8E\L	4ccc\	4ccc\	.	.	.	.	.	.	4cc\	4ee\
8C\	.	.	.	.	.	.	.	.	.	.
8E\	16bb\LL	16bb\LL	.	.	.	.	.	.	8ee\L	8gg\L
.	16aa\	16aa\	.	.	.	.	.	.	.	.
8F\J	16gg\	16gg\	.	.	.	.	.	.	8dd\J	8ff\J
.	16ff\JJ	16ff\JJ	.	.	.	.	.	.	.	.
4G\	8ee\L	8ee\L	.	.	.	.	.	.	4cc\	4ee\
.	16dd\L	16dd\L	.	.	.	.	.	.	.	.
.	16cc\JJ	16cc\JJ	.	.	.	.	.	.	.	.
!	!LO:TX:a:t=t	!LO:TX:a:t=t	!	!	!	!	!	!	!	!
4GG/	4dd\	4dd\	.	.	.	.	.	.	4g/	4dd\
!	!	!	!	!	!	!	!	!	!LO:LB:g=original	!LO:LB:g=original
=11	=11	=11	=11	=11	=11	=11	=11	=11	=11	=11
8C\L	4cc\	4cc\	8C\L	Lau-	4e\	Lau-	4cc\	Lau-	4cc\	4ee\
8C\	.	.	8D\J	.	.	.	.	.	.	.
8E\	16cc\LL	16cc\LL	8E\	-da-	16c\LL	-da-	16cc\LL	-da-	4r	4r
.	16dd\	16dd\	.	.	16B\JJ	.	16dd\JJ	.	.	.
8D\J	16ee\	16ee\	8D\	-te	16c\LL	-te	16ee\LL	-te	.	.
.	16ff\JJ	16ff\JJ	.	.	16d\JJ	.	16ff\JJ	.	.	.
8C\L	16gg\LL	16gg\LL	4C/	pu-	4e\	lau-	4gg\	lau-	8r	8r
.	16ee\J	16ee\J	.	.	.	.	.	.	.	.
8C\	8cc\J	8cc\J	.	.	.	.	.	.	8ee\L	8gg\L
8C\	16aa\LL	16aa\LL	8F\	-e-	8f\	-da-	8aa\	-da-	8ff\	8aa\
.	16ff\J	16ff\J	.	.	.	.	.	.	.	.
8C\J	8cc\J	8cc\J	8F\	-ri	8f\	-te	8aa\	-te	8ff\J	8aa\J
=12	=12	=12	=12	=12	=12	=12	=12	=12	=12	=12
8C\L	16gg\LL	16gg\LL	8C\	pu-	16c\	pu-	16gg\	Pu-	4ee\	4gg\
.	16ee\J	16ee\J	.	.	16d\	-e-	16ee\	-e-	.	.
8C\	8cc\J	8cc\J	8D\	-e-	8e\	-ri	8cc\	-ri	.	.
8E\	16cc\LL	16cc\LL	8E\L	-ri	16c\LL	Do-	16cc\LL	Do-	4r	4r
.	16dd\	16dd\	.	.	16B\	.	16dd\	.	.	.
8D\J	16ee\	16ee\	8D\J	.	16c\	.	16ee\	.	.	.
.	16ff\JJ	16ff\JJ	.	.	16d\JJ	.	16ff\JJ	.	.	.
8C\L	16gg\LL	16gg\LL	4C\	Do-	4e\	.	4gg\	.	8r	8r
.	16ee\J	16ee\J	.	.	.	.	.	.	.	.
8C\	8cc\J	8cc\J	.	.	.	.	.	.	8ee\L	8gg\L
8C\	16aa\LL	16aa\LL	4F\	.	4f\	.	4aa\	.	8ff\	8aa\
.	16ff\J	16ff\J	.	.	.	.	.	.	.	.
8C\J	8cc\J	8cc\J	.	.	.	.	.	.	8ff\J	8aa\J
=13	=13	=13	=13	=13	=13	=13	=13	=13	=13	=13
8C\L	16gg\LL	16gg\LL	8C\	.	16c\	.	16gg\	.	8ee\L	8gg\L
.	16ee\J	16ee\J	.	.	16d\	-mi-	16ee\	-mi-	.	.
8C\	8cc\J	8cc\J	8D\	-mi-	8e\	-num	8cc\	-num	16ee\L	16gg\L
.	.	.	.	.	.	.	.	.	16ee\JJ	16gg\JJ
8E\	8ccc\L	8ccc\L	8E\	-num	8r	.	8r	.	8ee\L	8gg\L
8E\J	8cc\J	8cc\J	8c\	lau-	8c\	lau-	8ee\	lau-	8ee\J	8gg\J
8F\L	16dd\LL	16dd\LL	4F\	-da-	4B\	-da-	4dd\	-da-	4dd\	4ff\
.	16cc\	16cc\	.	.	.	.	.	.	.	.
8F\	16b\	16b\	.	.	.	.	.	.	.	.
.	16a\JJ	16a\JJ	.	.	.	.	.	.	.	.
!	!LO:TX:a:t=problem:mixed beam	!LO:TX:a:t=problem:mixed beam	!	!	!	!	!	!	!	!
8G\	8g/L	8g/L	4G\	.	4d\	.	4ff\	.	4g/	4dd\
8G\J	8dd\J	8ff\J	.	.	.	.	.	.	.	.
=14	=14	=14	=14	=14	=14	=14	=14	=14	=14	=14
!	!LO:TX:a:t=problem:mixed beam	!LO:TX:a:t=problem:mixed beam	!	!	!	!	!	!	!	!
16C\LL	16cc\LL	16ee\LL	4C\	-te	4c\	-te	4ee\	-te	4cc\	4ee\
16C\	16c/	16c/	.	.	.	.	.	.	.	.
16D\	16d/	16d/	.	.	.	.	.	.	.	.
16E\JJ	16e/JJ	16e/JJ	.	.	.	.	.	.	.	.
16F\LL	16f/LL	16f/LL	8r	.	8r	.	8r	.	8r	8r
16G\	16g/	16g/	.	.	.	.	.	.	.	.
16A\	16a/	16a/	8G\	lau-	8B\	lau-	8dd\	lau-	8g/	8dd\
16B\JJ	16b/JJ	16b/JJ	.	.	.	.	.	.	.	.
!	!LO:LB:g=original	!LO:LB:g=original	!	!	!	!	!	!	!	!
8c\L	16cc\LL	16cc\LL	8c\	-da-	8c\	-da-	8ee\	-da-	8cc\L	8ee\L
.	16cc\	16cc\	.	.	.	.	.	.	.	.
8G\	16b\	16dd\	8G\	-te	8B\	-te	8dd\	-te	8g\J	8dd\J
.	16b\JJ	16dd\JJ	.	.	.	.	.	.	.	.
8E\	16cc\LL	16ee\LL	8E\	pu-	8c\	pu-	8ee\	pu-	8cc\	8ee\L
.	16cc\	16ee\	.	.	.	.	.	.	.	.
8C\J	16dd\	16ff\	16C\	-e-	16d\	-e-	16ff\	-e-	16dd\LL	16ff\L
.	16cc\JJ	16ee\JJ	16C\	-ri	16c\	-ri	16ee\	-ri	16cc\JJ	16ee\JJ
=15	=15	=15	=15	=15	=15	=15	=15	=15	=15	=15
8G\L	16b\LL	16dd\LL	8.G\	Do-	8.B\	Do-	8.dd\	Do-	8g/L	8dd\L
.	16dd\	16bb\	.	.	.	.	.	.	.	.
8D\	16dd\	16bb\	.	.	.	.	.	.	16g/L	16dd\L
.	16dd\JJ	16bb\JJ	16G\	-mi-	16B\	-mi-	16dd\	-mi-	16g/JJ	16dd\JJ
8BB\	16dd\LL	16bb\LL	8G\	-num	8B\	-num	8dd\	-num	8g/L	8dd\L
.	16dd\	16bb\	.	.	.	.	.	.	.	.
8GG\J	16dd\	16bb\	8G\	lau-	8B\	lau-	8dd\	lau-	8g/J	8dd\J
.	16dd\JJ	16bb\JJ	.	.	.	.	.	.	.	.
!	!	!	!	!	!	!	!LO:LB:g=original	!	!	!
8c\L	16cc\LL	16ee\LL	8c\	-da-	8c\	-da-	8ee\	-da-	8cc\L	8ee\L
.	16cc\	16ee\	.	.	.	.	.	.	.	.
8G\	16b\	16dd\	8G\	-te	8B\	-te	8dd\	-te	8g\J	8dd\J
.	16b\JJ	16dd\JJ	.	.	.	.	.	.	.	.
8E\	16cc\LL	16ee\LL	8E\	no-	8c\	no-	8ee\	no-	8cc\L	8ee\L
.	16cc\	16ee\	.	.	.	.	.	.	.	.
8C\J	16dd\	16ff\	8C\	-men	16d\LL	-men	16ff\LL	-men	16dd\L	16ff\L
.	16cc\JJ	16ee\JJ	.	.	16c\JJ	.	16ee\JJ	.	16cc\JJ	16ee\JJ
!	!	!	!	!	!LO:LB:g=original	!	!	!	!	!
=16	=16	=16	=16	=16	=16	=16	=16	=16	=16	=16
8G\L	16b\LL	16dd\LL	8.G\	Do-	8.B\	Do-	8.dd\	Do-	8g/L	8dd\L
.	16g\	16g\	.	.	.	.	.	.	.	.
8D\	16b\	16b\	.	.	.	.	.	.	16g/L	16dd\L
.	16dd\JJ	16dd\JJ	16G\	-mi-	16B\	-mi-	16dd\	-mi-	16g/JJ	16dd\JJ
!	!	!	!LO:LB:g=original	!	!	!	!	!	!	!
8BB\	8gg\L	8gg\L	8G\	-ni	8B\	-ni	8dd\	-ni	4g/	4dd\
8GG\J	8gg\J	8gg\J	8E\	sit	8g\	sit	8gg\	sit	.	.
8F\L	8gg\L	4aa\	8F\L	no-	8g\L	no-	4aa\	no-	2r	2r
8D\	8ff\	.	8D\J	.	8f\J	.	.	.	.	.
8E\	8ff\	4gg\	8E\L	-men	8f\L	-men	4gg\	-men	.	.
8C\J	8ee\J	.	8C\J	.	8e\J	.	.	.	.	.
=17	=17	=17	=17	=17	=17	=17	=17	=17	=17	=17
8D/L	8ee\L	4ff\	8D\	Do-	8e\	Do-	8.ff\	Do-	4dd\	4ff\
8GG/	8dd\	.	8G\	-mi-	8d\	-mi-	.	.	.	.
.	.	.	.	.	.	.	16ff\	-mi-	.	.
8C/	8cc\	4ee\	8C\	-ni	8c\	-ni	4ee\	-ni	4cc\	4ee\
8E/J	8gg\J	.	8E\	Be-	[8g\	be-	.	.	.	.
8F\L	8gg\L	4aa\	8F\L	.	8g\L]	.	4aa\	be-	2r	2r
8D\	8ff\	.	8D\J	.	8f\J	.	.	.	.	.
8E\	8ff\	4gg\	8E\L	-ne-	8f\L	-ne-	4gg\	-ne-	.	.
8C\J	8ee\J	.	8C\J	.	8e\J	.	.	.	.	.
!LO:LB:g=original	!	!	!	!	!	!	!	!	!	!
=18	=18	=18	=18	=18	=18	=18	=18	=18	=18	=18
8D/L	8ee\L	4ff\	8D\L	-dic-	8e\L	-dic-	4ff\	-dic-	4dd\	4ff\
8GG/J	8dd\J	.	8G\J	.	8d\J	.	.	.	.	.
4C/	4cc\	4ee\	4C/	-tum	4c\	-tum	4ee\	-tum	4cc\	4ee\
8C/L	16ee\LL	16ee\LL	8C\	ex	8c\	ex	8ee\	ex	8cc\L	8ee\L
.	16cc\	16cc\	.	.	.	.	.	.	.	.
8D/	16ee\	16ee\	8D\	hoc	8c\	hoc	8ee\	hoc	8cc\	8ee\
.	16gg\JJ	16gg\JJ	.	.	.	.	.	.	.	.
8E/	8ee\L	8ccc\L	8E\	nunc	8c\	nunc	8ee\	nunc	8cc\	8ee\
8F/J	8ee\J	8ccc\J	8F\	et	8c\	et	8ee\	et	8cc\J	8ee\J
=19	=19	=19	=19	=19	=19	=19	=19	=19	=19	=19
8G\L	4dd\	4bb\	8G\L	us-	4B\	us-	4dd\	us-	4g\	4dd\
8F\	.	.	8F\J	.	.	.	.	.	.	.
8E\	8ee\L	8ccc\L	8E\	-que	8c\	-que	8ee\	-que	8cc\L	8ee\L
8F\J	8dd\J	8ff\J	8F\	in	8d\	in	8ff\	in	8dd\J	8ff\J
4G\	4cc\	4ee\	4G\	sae-	4c\	sae-	4ee\	sae-	4cc\	4ee\
4GG/	4b\	4dd\	4GG/	-cu-	4B\	-cu-	4dd\	-cu-	4g/	4dd\
!	!	!	!	!	!	!	!	!	!LO:LB:g=original	!LO:LB:g=original
=20	=20	=20	=20	=20	=20	=20	=20	=20	=20	=20
8C\L	4a\	4cc\	4C/	-lum	4c\	-lum	4ee\	-lum	4cc\	4ee\
8D\	.	.	.	.	.	.	.	.	.	.
8E\	8b\L	8dd\L	4r	.	4r	.	4r	.	4r	4r
8C\J	8gg\J	8gg\J	.	.	.	.	.	.	.	.
8C\L	16gg\LL	16gg\LL	2r	.	2r	.	2r	.	4cc\	4ee\
.	16ff\	16ff\	.	.	.	.	.	.	.	.
8C\	16ee\	16ee\	.	.	.	.	.	.	.	.
.	16dd\JJ	16dd\JJ	.	.	.	.	.	.	.	.
8E\	16cc/LL	16cc\LL	.	.	.	.	.	.	4r	4r
!	!	!LO:TX:a:t=problem:bemol nad nutą	!	!	!	!	!	!	!	!
.	16b-X/	16b-X\	.	.	.	.	.	.	.	.
8E\J	16a/	16a\	.	.	.	.	.	.	.	.
.	16g/JJ	16g\JJ	.	.	.	.	.	.	.	.
=21	=21	=21	=21	=21	=21	=21	=21	=21	=21	=21
8F\L	16f/LL	16f/LL	00r	.	00r	.	00r	.	8cc\L	8ff\L
.	16e/JJ	16e/JJ	.	.	.	.	.	.	.	.
8G\	4f/	4f/	.	.	.	.	.	.	16cc\L	16ff\L
.	.	.	.	.	.	.	.	.	16cc\JJ	16ff\JJ
8A\	.	.	.	.	.	.	.	.	8cc\L	8ff\L
8F\J	8aa\	8aa\	.	.	.	.	.	.	8cc\J	8ff\J
8D\L	16aa\LL	16aa\LL	.	.	.	.	.	.	4dd\	4ff#X\
.	16gg\	16gg\	.	.	.	.	.	.	.	.
8D\	16ff#X\	16ff#X\	.	.	.	.	.	.	.	.
.	16ee\JJ	16ee\JJ	.	.	.	.	.	.	.	.
8F#X\	16dd\LL	16dd\LL	.	.	.	.	.	.	4r	4r
.	16cc\	16cc\	.	.	.	.	.	.	.	.
8F#\J	16b\	16b\	.	.	.	.	.	.	.	.
.	16a\JJ	16a\JJ	.	.	.	.	.	.	.	.
!	!LO:LB:g=original	!LO:LB:g=original	!	!	!	!	!	!	!	!
=22	=22	=22	=22	=22	=22	=22	=22	=22	=22	=22
8G\L	16g/LL	16g/LL	.	.	.	.	.	.	8dd\L	8gg\L
.	16f#X/JJ	16f#X/JJ	.	.	.	.	.	.	.	.
8A\	4g/	4g/	.	.	.	.	.	.	16dd\L	16gg\L
.	.	.	.	.	.	.	.	.	16dd\JJ	16gg\JJ
8B\	.	.	.	.	.	.	.	.	4dd\	4gg\
8E\J	8g/	8g/	.	.	.	.	.	.	.	.
8F\L	16a\LL	16a\LL	.	.	.	.	.	.	2r	2r
.	32b\L	32b\L	.	.	.	.	.	.	.	.
.	32cc\J	32cc\J	.	.	.	.	.	.	.	.
8F\	16dd\	16dd\	.	.	.	.	.	.	.	.
.	16cc\JJ	16cc\JJ	.	.	.	.	.	.	.	.
8G\	16b\LL	16b\LL	.	.	.	.	.	.	.	.
.	32cc\L	32cc\L	.	.	.	.	.	.	.	.
.	32dd\J	32dd\J	.	.	.	.	.	.	.	.
8G\J	16ee\	16ee\	.	.	.	.	.	.	.	.
.	16dd\JJ	16dd\JJ	.	.	.	.	.	.	.	.
=23	=23	=23	=23	=23	=23	=23	=23	=23	=23	=23
8A\L	16cc\LL	16cc\LL	.	.	.	.	.	.	2r	2r
.	32dd\L	32dd\L	.	.	.	.	.	.	.	.
.	32ee\J	32ee\J	.	.	.	.	.	.	.	.
8A\	16ff\	16ff\	.	.	.	.	.	.	.	.
.	16ee\JJ	16ee\JJ	.	.	.	.	.	.	.	.
8B\	16dd\LL	16dd\LL	.	.	.	.	.	.	.	.
.	32ee\L	32ee\L	.	.	.	.	.	.	.	.
.	32ff\J	32ff\J	.	.	.	.	.	.	.	.
8B\J	16gg\	16gg\	.	.	.	.	.	.	.	.
.	16ff\JJ	16ff\JJ	.	.	.	.	.	.	.	.
!LO:TX:a:t=problem:mixed beam	!	!	!	!	!	!	!	!	!	!
8c\L	8ee\L	8ee\L	.	.	.	.	.	.	8r	8r
8C/	8ccc\	8ccc\	.	.	.	.	.	.	8cc\L	8ee\L
8E/	8ccc\	8ccc\	.	.	.	.	.	.	8cc\	8ee\
8G/J	8ccc\J	8ccc\J	.	.	.	.	.	.	8cc\J	8ee\J
=24	=24	=24	=24	=24	=24	=24	=24	=24	=24	=24
8E\L	4ccc\	4ccc\	.	.	.	.	.	.	4cc\	4ee\
8C\	.	.	.	.	.	.	.	.	.	.
8E\	16bb\LL	16bb\LL	.	.	.	.	.	.	8ee\L	8gg\L
.	16aa\	16aa\	.	.	.	.	.	.	.	.
8F\J	16gg\	16gg\	.	.	.	.	.	.	8dd\J	8ff\J
.	16ff\JJ	16ff\JJ	.	.	.	.	.	.	.	.
4G\	8ee\L	8ee\L	.	.	.	.	.	.	4cc\	4ee\
.	16dd\L	16dd\L	.	.	.	.	.	.	.	.
.	16cc\JJ	16cc\JJ	.	.	.	.	.	.	.	.
!	!LO:TX:a:t=t	!LO:TX:a:t=t	!	!	!	!	!	!	!	!
4GG/	4dd\	4dd\	.	.	.	.	.	.	4g/	4dd\
=25	=25	=25	=25	=25	=25	=25	=25	=25	=25	=25
!	!	!	!	!	!LO:TX:a:t=Solo	!	!	!	!	!
8C\L	4cc\	4cc\	00r	.	4c\	A	00r	.	4cc\	4ee\
8E\	.	.	.	.	.	.	.	.	.	.
8D\	4r	4r	.	.	16B\LL	So-	.	.	4r	4r
.	.	.	.	.	16c\JJ	.	.	.	.	.
8C\J	.	.	.	.	16d\LL	-lis	.	.	.	.
.	.	.	.	.	16e\JJ	.	.	.	.	.
8G\L	8r	8r	.	.	8f\	or-	.	.	2r	2r
16C\L	8ee\	8ccc\	.	.	8e\	-tu	.	.	.	.
16D\JJ	.	.	.	.	.	.	.	.	.	.
8E\L	4ee\	4ccc\	.	.	4r	.	.	.	.	.
8C\J	.	.	.	.	.	.	.	.	.	.
!	!	!	!	!	!LO:LB:g=original	!	!	!	!	!
=26	=26	=26	=26	=26	=26	=26	=26	=26	=26	=26
4F\	2r	2r	.	.	8c\	us-	.	.	00r	00r
.	.	.	.	.	8a\	-que	.	.	.	.
8r	.	.	.	.	8a\	ad	.	.	.	.
8F\	.	.	.	.	8a\	o-	.	.	.	.
*	*	*	*	*	*Xtuplet	*	*	*	*	*
!LO:TX:a:t=problem:mixed beam	!	!	!	!	!LO:TX:a:t=problem:brak oznaczenia triol	!	!	!	!	!
8c\L	8r	8r	.	.	24a\LL	-ca-	.	.	.	.
.	.	.	.	.	24g\	.	.	.	.	.
.	.	.	.	.	24f\JJ	.	.	.	.	.
16C/L	8ee\	8gg\	.	.	8f\	-sum	.	.	.	.
16D/JJ	.	.	.	.	.	.	.	.	.	.
8E\L	4ee\	4gg\	.	.	4r	.	.	.	.	.
8C\J	.	.	.	.	.	.	.	.	.	.
!LO:LB:g=original	!	!	!	!	!	!	!	!	!	!
=27	=27	=27	=27	=27	=27	=27	=27	=27	=27	=27
4G\	2r	2r	.	.	8G\	us-	.	.	.	.
.	.	.	.	.	8f\	-que	.	.	.	.
8r	.	.	.	.	8f\	ad	.	.	.	.
8G\	.	.	.	.	8f\	o-	.	.	.	.
!LO:TX:a:t=problem:mixed beam	!	!	!	!	!	!	!	!	!	!
8c\L	8r	8r	.	.	24f\LL	-ca-	.	.	.	.
.	.	.	.	.	24e\	.	.	.	.	.
.	.	.	.	.	24d\JJ	.	.	.	.	.
16C/L	8cc\	8ee\	.	.	8e\	-sum	.	.	.	.
16D/JJ	.	.	.	.	.	.	.	.	.	.
8E\L	4cc\	4ee\	.	.	4r	.	.	.	.	.
8C\J	.	.	.	.	.	.	.	.	.	.
=28	=28	=28	=28	=28	=28	=28	=28	=28	=28	=28
!	!LO:TX:a:t=problem:mixed beam	!	!	!	!	!	!	!	!	!
8G\L	8b\L	8dd\L	.	.	(8d\L	lau-	.	.	.	.
8G\	8cc\	8ee\	.	.	8e\J)	.	.	.	.	.
8G\	8d/	8b\	.	.	(8B\L	.	.	.	.	.
8G\J	8e/J	8cc\J	.	.	8c\J)	.	.	.	.	.
!LO:TX:a:t=problem:mixed beam	!	!	!	!	!	!	!	!	!	!
8G\L	8b\L	8dd\L	.	.	8.d\	-da-	.	.	.	.
8G\	8dd\J	8ff\J	.	.	.	.	.	.	.	.
.	.	.	.	.	16f\	-bi-	.	.	.	.
8c\	4cc\	4ee\	.	.	4e\	-le	.	.	.	.
8C/J	.	.	.	.	.	.	.	.	.	.
=29	=29	=29	=29	=29	=29	=29	=29	=29	=29	=29
!	!LO:TX:a:t=problem:mixed beam	!	!	!	!	!	!	!	!	!
8G\L	8b\L	8dd\L	0r	.	8d\L	no-	0r	.	.	.
8G\	8cc\	8ee\	.	.	8e\J	.	.	.	.	.
8G\	8d/	8b\	.	.	8B\L	-men	.	.	.	.
8G\J	8e/J	8cc\J	.	.	8c\J	.	.	.	.	.
!LO:TX:a:t=problem:mixed beam	!	!	!	!	!	!	!	!	!	!
8G\L	8b\L	8dd\L	.	.	8d\L	Do-	.	.	.	.
8G\	8dd\J	8ff\J	.	.	8f\J	.	.	.	.	.
8c\	4cc\	4ee\	.	.	4e\	-mi-	.	.	.	.
8C/J	.	.	.	.	.	.	.	.	.	.
=30	=30	=30	=30	=30	=30	=30	=30	=30	=30	=30
4F\	4a/	4dd\	.	.	4d\	-ni	.	.	0r	0r
4r	4r	4r	.	.	24a\LL	no-	.	.	.	.
.	.	.	.	.	24g\	.	.	.	.	.
.	.	.	.	.	24f\JJ	.	.	.	.	.
.	.	.	.	.	24e\LL	-men	.	.	.	.
.	.	.	.	.	24d\	.	.	.	.	.
.	.	.	.	.	24c\JJ	.	.	.	.	.
8G\L	8b\L	8dd\L	.	.	4B\	Do-	.	.	.	.
8F\	8b\	8dd\	.	.	.	.	.	.	.	.
8E\	8cc\	8ee\	.	.	8c\L	.	.	.	.	.
8F\J	8dd\J	8ff\J	.	.	8d\J	.	.	.	.	.
!	!LO:LB:g=original	!LO:LB:g=original	!	!	!	!	!	!	!	!
=31	=31	=31	=31	=31	=31	=31	=31	=31	=31	=31
4G\	4cc\	4ee\	1r	.	4c\	.	1r	.	.	.
4GG/	4b\	4dd\	.	.	4d\	-mi-	.	.	.	.
!	!LO:TX:a:t=problem:mixed beam	!LO:TX:a:t=problem:mixed beam	!	!	!	!	!	!	!	!
8C\L	16cc\LL	16ee\LL	.	.	4c\	-ni	.	.	.	.
.	16c/	16c/	.	.	.	.	.	.	.	.
16D\L	16d/	16d/	.	.	.	.	.	.	.	.
16E\JJ	16e/JJ	16e/JJ	.	.	.	.	.	.	.	.
16F\LL	16f/LL	16f/LL	.	.	4r	.	.	.	.	.
16G\	16g/	16g/	.	.	.	.	.	.	.	.
16A\	16a/	16a/	.	.	.	.	.	.	.	.
16B\JJ	16b/JJ	16b/JJ	.	.	.	.	.	.	.	.
!	!	!	!	!	!LO:LB:g=original	!	!	!	!	!
=32	=32	=32	=32	=32	=32	=32	=32	=32	=32	=32
!	!	!	!	!	!LO:TX:a:t=Tutti	!	!	!	!	!
8c\L	4ee\	4gg\	4c\	Ex-	4G\	ex-	4ee\	ex-	8cc\L	8ee\L
8c\	.	.	.	.	.	.	.	.	8cc\	8ee\
8B\	8dd\L	8gg\L	8B\	-cel-	8G	-cel-	8dd\	-cel-	8g\	8dd\
8A\J	8ee\J	8ccc\J	8A\	-ſuſ	8A\	-suſ	8cc\	-suſ	8cc\J	8ee\J
!	!	!	!	!	!	!	!LO:LB:g=original	!	!	!
8G\L	8dd\L	8bb\L	8G\	su-	8G\	su-	8b\	su-	4g/	4dd\
8F\	8dd\	8aa\	8F\	-per	8c\	-per	8a\	-per	.	.
8E\	8cc\	8gg\	8E\	om-	8c\	om-	8g\	om-	4r	4r
8D\J	8dd\J	8ff\J	8D\	-neſ	8c\	-nes	8f\	-nes	.	.
=33	=33	=33	=33	=33	=33	=33	=33	=33	=33	=33
!LO:TX:a:t=problem:mixed beam	!	!	!	!	!	!	!	!	!	!
8C\L	8cc\L	8ee\L	8C\	gen-	8c\	gen-	8e/	gen-	8cc\L	8ee\L
8E\	8cc\	8ee\	8E\	-teſ	8e\	-teſ	8cc\	-teſ	8cc\	8ee\
8G\	8b\	8dd\	8G\	Do-	8.B\	Do-	8.dd\	Do-	8g\	8dd\
8GG/J	8b\J	8dd\J	8GG/	-mi-	.	.	.	.	8g\J	8dd\J
.	.	.	.	.	16B\	-mi-	16dd\	-mi-	.	.
4C\	4cc\	4ee\	4C/	-nuſ	4c\	-nuſ	4cc\	-nuſ	4cc\	4ee\
4G\	4dd\	4gg\	4G\	et	4G\	et	4dd\	et	4g\	4dd\
=34	=34	=34	=34	=34	=34	=34	=34	=34	=34	=34
4c\	4ee\	4gg\	4c\	su-	4G/	su-	4ee\	su-	4cc\	4ee\
4G\	4dd\	4gg\	4B\	-per	4G/	-per	4dd\	-per	4g\	4dd\
4c\	4ee\	4gg\	4c\	cae-	4G/	cae-	4ee\	cae-	4cc\	4ee\
!	!	!	!LO:TX:a:t=problem: ucięty tekst	!	!	!	!	!	!	!
4G\	4dd\	4gg\	4G\	-loſ	4B\	-loſ	4dd\	-loſ	4g\	4dd\
!	!	!	!LO:LB:g=original	!	!	!	!	!	!	!
=35	=35	=35	=35	=35	=35	=35	=35	=35	=35	=35
4c\	4ee\	4gg\	4c\	glo-	8c\L	glo-	8ee\L	glo-	4cc\	4ee\
.	.	.	.	.	8d\J	.	8ff#X\J	.	.	.
8B\L	8dd\L	8gg\L	8B\	-ri-	8B\	-ri-	8gg\	-ri-	8g\L	8dd\L
8c\J	8ee\J	8aa\J	8c\	-a	8c\	-a	8aa\	-a	8cc\J	8ee\J
4d\	4b\	4gg\	4d\	e-	4B\	e-	4gg\	e-	4dd\	4dd\
!	!	!LO:TX:a:t=SIC:s:ff#	!	!	!	!	!	!	!	!
4D\	4a\	4ff\	4D/	.	4A\	.	4ff#X\	.	4dd\	4dd\
!LO:LB:g=original	!	!	!	!	!	!	!	!	!LO:LB:g=original	!
=36	=36	=36	=36	=36	=36	=36	=36	=36	=36	=36
4G\	4b\	4gg\	4G\	-juſ	4B\	-juſ	4gg\	-juſ	4g/	4dd\
8d\L	8dd\L	8ff\L	8d\L	quiſ	4d\	quiſ	4ffn\	quiſ	8dd\L	8ff\L
8c\	8dd\J	8ff\J	8c\J	.	.	.	.	.	8dd\J	8ff\J
8B\	8dd\L	8ff\L	8B\	si-	8d\	si-	8ff\	si-	8dd\L	8ff\L
8A\J	8dd\	8ff\	8A\	-cut	8d\	-cut	8ff\	-cut	8dd\	8ff\
8G\L	8dd\	8ff\	8B\	Do-	8d\	Do-	8ff\	Do-	8dd\	8ff\
8G\J	8dd\J	8ff\J	8G\	-mi-	8d\	-mi-	8ff\	-mi-	8dd\J	8ff\J
!	!	!	!	!	!	!	!	!	!	!LO:LB:g=original
=37	=37	=37	=37	=37	=37	=37	=37	=37	=37	=37
!LO:TX:a:t=problem:mixed beam	!	!	!	!	!	!	!	!	!	!
8c\L	4cc\	4ccc\	4c\	-nuſ	4c\	-nuſ	4ee\	-nuſ	4cc\	4ee\
8C/	.	.	.	.	.	.	.	.	.	.
8Fn\	8dd\L	8aa\L	8F\	De-	8A\	De-	8dd\	De-	8dd\L	8ff\L
8F\J	8cc\J	8aa\J	8F\	-uſ	8A\	-uſ	8cc\	-uſ	8cc\J	8ee\J
8G\L	8b\L	8dd\L	8G\	nos-	8G/	nos-	8b\	nos-	4g/	4dd\
8E\	8b\	8dd\	8G\	-ter	8G/	-ter	8a\	-ter	.	.
8D\	8g\	8cc\	8E\	qui	8G/	qui	8g\	qui	4cc\	4ee\
8C\J	8g\J	8cc\J	8C\	in	8G/	in	8cc\	in	.	.
!	!	!	!	!	!LO:LB:g=original	!	!LO:LB:g=original	!	!	!
=38	=38	=38	=38	=38	=38	=38	=38	=38	=38	=38
!LO:TX:a:t=problem:mixed beam	!	!	!	!	!	!	!	!	!	!
8F\L	8a\L	8cc\L	8F\	al-	8A/	al-	8a,\	al-	4g/	4dd\
8D\	8ff\J	8aa\J	8D\	-tiſ	16A/LL	-tiſ	8dd\	-tiſ	.	.
.	.	.	.	.	16F/JJ	.	.	.	.	.
.	.	.	.	.	.	.	8qqcc/	.	.	.
8G\	4dd\	4b\	8G\	ha-	8.D/	ha-	8.b\	ha-	8g/L	8dd\L
8GG/J	.	.	8G\	-bi-	.	.	.	.	8g/J	8dd\J
.	.	.	.	.	16D/	-bi-	16b\	-bi-	.	.
4C/	4ee\	4cc\	4C/	-tat	4E/	-tat	4cc\	-tat	4cc\	4ee\
8C/L	16ee\LL	16gg\LL	8c\	ex	8A\	ex	8cc\	ex	8dd\L	8dd\L
.	16ee\	16gg\	.	.	.	.	.	.	.	.
8C/J	16ee\	16gg\	8c\	hu-	8A\	hu-	8a\	hu-	8dd\J	8dd\J
.	16ee\JJ	16gg\JJ	.	.	.	.	.	.	.	.
=39	=39	=39	=39	=39	=39	=39	=39	=39	=39	=39
8D\L	16cc\LL	16ff#X\LL	4d\	-mi-	4D/	-mi-	4f#X/	-mi-	8dd\L	8dd\L
.	16cc\	16ff#\	.	.	.	.	.	.	.	.
8D\	16cc\	16ff#\	.	.	.	.	.	.	8dd\	8dd\
.	16cc\JJ	16ff#\JJ	.	.	.	.	.	.	.	.
8D\	16cc\LL	16ff#\LL	8D\	-li-	8D/	-li-	8f#\	-li-	8dd\	8dd\
.	16cc\	16ff#\	.	.	.	.	.	.	.	.
8D\J	16cc\	16ff#\	8D\	-a	8A\	-a	8cc\	-a	8dd\J	8dd\J
.	16cc\JJ	16ff#\JJ	.	.	.	.	.	.	.	.
4G\	16b\LL	16gg\LL	8G\	res-	16G\	res-	16b\	res-	4g/	4dd\
.	16b\	16gg\	.	.	16A\	-pi-	16a\	-pi-	.	.
.	16b\	16gg\	8G\	-pi-	8B\	-cit	8g\	-cit	.	.
.	16b\JJ	16gg\JJ	.	.	.	.	.	.	.	.
8C/L	16ee\LL	16gg\LL	8c\	-cit	4B\	in	4g\	in	4r	4r
.	16ee\	16gg\	.	.	.	.	.	.	.	.
8C/J	16ee\	16gg\	8c\	in	.	.	.	.	.	.
.	16ee\JJ	16gg\JJ	.	.	.	.	.	.	.	.
!	!LO:LB:g=original	!LO:LB:g=original	!	!	!	!	!	!	!	!
=40	=40	=40	=40	=40	=40	=40	=40	=40	=40	=40
!	!	!	!LO:TX:a:t=SIC:l:s:Coel	!	!LO:TX:a:t=SIC:l:s:Coel	!	!	!	!	!
8D\L	16cc\LL	16ff#X\LL	8d\	cal-	8D/	Cal-	8f#X/	coel-	8dd\L	8dd\L
.	16cc\	16ff#\	.	.	.	.	.	.	.	.
8D\	16cc\	16ff#\	8d\	-lo	8D/	-lo	8f#/	-lo	8dd\	8dd\
.	16cc\JJ	16ff#\JJ	.	.	.	.	.	.	.	.
8D\	16cc\LL	16ff#\LL	8D\	et	8D/	et	8f#/	et	8dd\	8dd\
.	16cc\	16ff#\	.	.	.	.	.	.	.	.
8D\J	16cc\	16ff#\	8D\	in	8A\	in	8cc\	in	8dd\J	8dd\J
.	16cc\JJ	16ff#\JJ	.	.	.	.	.	.	.	.
4G\	8b\L	8gg\L	8G\	ter-	8G\	ter-	8b\	ter-	4g/	4dd\
.	.	.	.	.	.	.	8qqa/	.	.	.
.	8b\	8gg\	8G\	-ra	8G\	-ra	8g\	-ra	.	.
4B\	8dd\	8gg\	4B\	in	4B\	in	4dd\	in	4g/	4dd\
.	8dd\J	8gg\J	.	.	.	.	.	.	.	.
!	!	!	!LO:LB:g=original	!	!	!	!	!	!	!
=41	=41	=41	=41	=41	=41	=41	=41	=41	=41	=41
!	!	!	!LO:TX:a:t=SIC:l:s:Coel	!	!	!	!	!	!	!
4c\	4ee\	4gg\	8c\	cal-	8c\	coel-	8ee\	coel-	4cc\	4ee\
.	.	.	8c\	-lo	8c\	-lo	8ee\	-lo	.	.
8B\L	8dd\L	8gg\L	8B\	et	8B\	et	8dd\	et	4r	4r
8c\J	8ee\J	8aa\J	8c\	in	8A\	in	8cc\	in	.	.
4d\	4b\	4gg\	4d\	ter-	4G/	ter-	4b\	ter-	4dd\	4dd\
!	!	!	!	!	!LO:TX:a:t=t	!	!LO:TX:a:t=t	!	!	!
4D\	4a\	4ff#X\	4D/	.	4F/	.	4a\	.	4dd\	4dd\
=42	=42	=42	=42	=42	=42	=42	=42	=42	=42	=42
!LO:TX:a:t=problem:mixed beam	!	!LO:TX:a:t=problem:mixed beam	!	!	!	!	!	!	!	!
16G\LL	16b\LL	16gg\LL	4G\	-ra	4G/	-ra	4g\	-ra	4g/	4dd\
16GG/	16g\	16g/	.	.	.	.	.	.	.	.
16AA/	16a\	16a/	.	.	.	.	.	.	.	.
16BB/JJ	16b\JJ	16b/JJ	.	.	.	.	.	.	.	.
16C\LL	16cc\LL	16cc\LL	4r	.	4r	.	4r	.	4r	4r
16D\	16dd\	16dd\	.	.	.	.	.	.	.	.
16E\	16ee\	16ee\	.	.	.	.	.	.	.	.
!	!LO:TX:a:t=SIC:s:ff#	!	!	!	!	!	!	!	!	!
16F\JJ	16ff\JJ	16ff#X\JJ	.	.	.	.	.	.	.	.
8G\L	8gg\L	4gg\	2r	.	4B\	Sus-	4gg\	Sus-	2r	2r
8G\	8b\J	.	.	.	.	.	.	.	.	.
8G\	4b\	4dd\	.	.	4B\	-ci-	4dd\	-ci-	.	.
8G\J	.	.	.	.	.	.	.	.	.	.
=43	=43	=43	=43	=43	=43	=43	=43	=43	=43	=43
8G\L	4cc\	4ee\	00r	.	4c\	-tanſ	4ee\	-tanſ	00r	00r
8G\	.	.	.	.	.	.	.	.	.	.
8G\	8cc\L	8ee\L	.	.	8r	.	8r	.	.	.
8G\J	8cc\J	8ee\J	.	.	8c\	a	8ee\	a	.	.
!	!	!	!	!	!	!	!LO:LB:g=original	!	!	!
8D\L	8b\	8dd\	.	.	8B\	ter-	8dd\	ter-	.	.
8D\	4a/	4cc\	.	.	8A\	-ra	8cc\	-ra	.	.
!	!	!	!	!	!LO:LB:g=original	!	!	!	!	!
8D\	.	.	.	.	8A\	in-	8cc\	in-	.	.
8D\J	16g/LL	16b/LL	.	.	16G\LL	-o-	16b\LL	-o-	.	.
.	16f#X/JJ	16a/JJ	.	.	16F#X\JJ	.	16a\JJ	.	.	.
!LO:LB:g=original	!	!	!	!	!	!	!	!	!	!
=44	=44	=44	=44	=44	=44	=44	=44	=44	=44	=44
!LO:TX:a:t=problem:mixed beam	!LO:TX:a:t=problem:mixed beam	!LO:TX:a:t=problem:mixed beam	!	!	!	!	!	!	!	!
16G\LL	16b\LL	16b\LL	.	.	4G\	-pem	4b\	-pem	.	.
16GG/	16G/	16G/	.	.	.	.	.	.	.	.
16AA/	16A/	16A/	.	.	.	.	.	.	.	.
16BB/JJ	16B/JJ	16B/JJ	.	.	.	.	.	.	.	.
16C\LL	16c/LL	16c/LL	.	.	4r	.	4r	.	.	.
16D\	16d/	16d/	.	.	.	.	.	.	.	.
16E\	16e/	16e/	.	.	.	.	.	.	.	.
!	!LO:TX:a:t=SIC:s:f#	!	!	!	!	!	!	!	!	!
16F\JJ	16f/JJ	16f#X/JJ	.	.	.	.	.	.	.	.
8G\L	8g\L	8g\L	.	.	4.B\	et	4.gg\	et	.	.
8G\	16g\L	16b\L	.	.	.	.	.	.	.	.
.	16a\JJ	16cc\JJ	.	.	.	.	.	.	.	.
8G\	8b\L	8dd\L	.	.	.	.	.	.	.	.
8G\J	8cc\J	8ee\J	.	.	8c\	de	8ee\	de	.	.
=45	=45	=45	=45	=45	=45	=45	=45	=45	=45	=45
8G\L	8b\L	8dd\L	.	.	8B\	Ster-	8dd\	Ster-	.	.
8G\	8a\J	8cc\J	.	.	8A\	-co-	8cc\	-co-	.	.
8G\	4g/	4b\	.	.	4G\	-re	4b\	-re	.	.
8G\J	.	.	.	.	.	.	.	.	.	.
8G\L	8g/L	8b\L	.	.	4B\	e-	4gg\	e-	.	.
8G\	8a/	8cc\	.	.	.	.	.	.	.	.
8G\	8b/	8dd\	.	.	8B\	-ri-	8gg\	-ri-	.	.
8G\J	8cc/J	8ee\J	.	.	8c\	-genſ	8ee\	-gens	.	.
=46	=46	=46	=46	=46	=46	=46	=46	=46	=46	=46
8G\L	8b/L	8dd\L	.	.	8B\	pau-	8dd\	pau-	.	.
8G\	8a/J	8cc\J	.	.	8A\	-pe-	8cc\	-pe-	.	.
8G\	4g/	4b\	.	.	4G\	-rem	4b\	-rem	.	.
8G\J	.	.	.	.	.	.	.	.	.	.
4C/	4g/	4ee\	.	.	4c\	e-	4ee\	e-	.	.
8C/L	8f/L	8dd\L	.	.	8B\	-ri-	8dd\	-ri-	.	.
8C/J	8a/J	8cc\J	.	.	8A\	-gens	8cc\	-gens	.	.
=47	=47	=47	=47	=47	=47	=47	=47	=47	=47	=47
4D\	4g/	4b/	0r	.	4G/	pau-	4b\	pau-	1r	1r
!	!LO:TX:a:t=SIC:s:f#	!	!	!	!LO:TX:a:t=SIC:s:F#	!	!	!	!	!
4D\	4f/	4a/	.	.	4F/	-per-	4a\	-pe-	.	.
!	!LO:LB:g=original	!LO:TX:a:t=problem:mixed beam	!	!	!	!	!	!	!	!
8G\L	8g\L	8g/L	.	.	4G/	-rem	4b\	-rem	.	.
8B\	8gg\J	8gg\J	.	.	.	.	.	.	.	.
!	!	!LO:N:vis=8	!	!	!	!	!	!	!	!
8A\	8.gg\L	8.gg\L	.	.	4r	.	4r	.	.	.
8G\J	.	.	.	.	.	.	.	.	.	.
!	!LO:TX:a:t=SIC:s:ff#	!	!	!	!	!	!	!	!	!
.	32ff\LL	32ff#X\LL	.	.	.	.	.	.	.	.
.	32gg\JJJ	32gg\JJJ	.	.	.	.	.	.	.	.
!	!	!LO:LB:g=original	!	!	!	!	!	!	!	!
=48	=48	=48	=48	=48	=48	=48	=48	=48	=48	=48
!LO:TX:a:t=SIC:s:F#	!	!	!	!	!	!	!	!	!	!
8F\L	8aa\	8aa\	.	.	0r	.	0r	.	8r	8r
8D\	4cc\	4cc\	.	.	.	.	.	.	8dd\L	8dd\L
8E\	.	.	.	.	.	.	.	.	8dd\	8dd\
8F\J	16b\LL	16b\LL	.	.	.	.	.	.	8dd\J	8dd\J
.	16a\JJ	16a\JJ	.	.	.	.	.	.	.	.
!	!	!LO:TX:a:t=problem:mixed beam	!	!	!	!	!	!	!	!
8G\L	8g\L	8g/L	.	.	.	.	.	.	4g/	4dd\
8B\	8gg\J	8gg\J	.	.	.	.	.	.	.	.
8A\	8.gg\L	8.gg\L	.	.	.	.	.	.	4r	4r
8G\J	.	.	.	.	.	.	.	.	.	.
!	!LO:TX:a:t=SIC:s:ff#	!	!	!	!	!	!	!	!	!
.	32ff\LL	32ff#X\LL	.	.	.	.	.	.	.	.
.	32gg\JJJ	32gg\JJJ	.	.	.	.	.	.	.	.
=49	=49	=49	=49	=49	=49	=49	=49	=49	=49	=49
!LO:TX:a:t=SIC:s:F#	!	!	!	!	!	!	!	!	!	!
8F\L	8aa\	8aa\	1r	.	.	.	.	.	8r	8r
8D\	4cc\	4cc\	.	.	.	.	.	.	8dd\L	8dd\L
8E\	.	.	.	.	.	.	.	.	8dd\	8dd\
8F\J	16b\LL	16b\LL	.	.	.	.	.	.	8dd\J	8dd\J
.	16a\JJ	16a\JJ	.	.	.	.	.	.	.	.
8G\L	16b\LL	16b\LL	.	.	.	.	.	.	4g/	4dd\
.	16a\J	16a\J	.	.	.	.	.	.	.	.
8B\	8g\J	8g\J	.	.	.	.	.	.	.	.
!	!LO:TX:a:t=t	!	!	!	!	!	!	!	!	!
8d\	4a\	4a\	.	.	.	.	.	.	8dd\L	8dd\L
8D\J	.	.	.	.	.	.	.	.	8dd\J	8dd\J
!	!	!	!	!	!	!	!	!	!LO:LB:g=original	!
=50	=50	=50	=50	=50	=50	=50	=50	=50	=50	=50
4G\	4g/	4g/	4r	.	4r	.	4r	.	4g/	4dd\
4G\	4b/	4dd\	4G\	ut	4B\	ut	4dd\	ut	4r	4r
4c\	4g/	8ee\L	4c\	col-	8G\L	col-	8ee\L	col-	2r	2r
.	.	8ff\J	.	.	8A\J	.	8ff\J	.	.	.
8B\L	8dd\L	8gg\L	8B\	-lo-	8B\L	-lo-	8gg\L	-lo-	.	.
8c\J	8ee\J	8aa\J	8c\	-cet	8c\J	.	8aa\J	.	.	.
=51	=51	=51	=51	=51	=51	=51	=51	=51	=51	=51
4d\	4b\	4gg\	(4d\	e-	4B\	-cet	4gg\	-cet	4dd\	4dd\
4D\	4a\	4ff#X\	4D/)	.	4A\	e-	4ff#X\	e-	4dd\	4dd\
4G\	4b\	4gg\	4G\	-um	4B\	-um	4gg\	-um	4g/	4g/
4B\	4dd\	4ffn\	(4B\	cum	4d\	cum	4ffn\	cum	4r	4r
!	!	!	!	!	!	!	!LO:LB:g=original	!	!	!LO:LB:g=original
=52	=52	=52	=52	=52	=52	=52	=52	=52	=52	=52
!	!	!	!	!	!	!	!	!	!	!LO:N:vis=00
4c\	4a/	4ee\	4c\)	.	4c\	.	4ee\	.	00r	00r
4E\	4g/	8dd\L	4E\	prin-	4G\	prin-	8dd\L	prin-	.	.
.	.	8cc\J	.	.	.	.	8cc\J	.	.	.
!	!	!	!LO:TX:a:t=SIC:s:F	!	!	!	!	!	!	!
4F\	4cc\	4aa\	4G\	-ci-	4A\	-ci-	4a\	-ci-	.	.
!	!	!	!LO:TX:a:t=SIC:s:G	!	!	!	!	!	!	!
4G\	4dd\	4bn\	4B\	-pi_buſ	4d\	-pi-	4b\	-pi-	.	.
!LO:LB:g=original	!	!	!	!	!LO:LB:g=original	!	!	!	!	!
=53	=53	=53	=53	=53	=53	=53	=53	=53	=53	=53
!	!	!	!LO:TX:a:t=problem: brak pierwszej ćwierćnuty. Uzupełniono na podstawie skanu nr 43	!	!	!	!	!	!	!
4C/	4ee\	4cc\	4C/yy	.	4e\	-buſ	4cc\	-bus	.	.
4c\	8b-X\L	8gg\L	4c\	po-	4G/	po-	4b-X\	po-	.	.
.	8g\J	8b-X\J	.	.	.	.	.	.	.	.
4E\	8b-\L	8gg\L	4E\	-pu-	4G/	-pu-	4b-\	-pu-	.	.
.	8g\	8b-\	.	.	.	.	.	.	.	.
4C\	8b-\	8gg\	4C\	-li	4G/	-li	4b-\	-li	.	.
.	8g\J	8b-\J	.	.	.	.	.	.	.	.
=54	=54	=54	=54	=54	=54	=54	=54	=54	=54	=54
!	!LO:TX:a:t=SIC:s:b-	!	!	!	!	!	!LO:TX:a:t=SIC:s:b-	!	!	!
4F\	4b/	4gg\	4F\	su-	4G/	su-	4b\	su-	.	.
4FF/	4a/	4ff\	4F\	-i	4F/	-i	4a\	-i	.	.
4A\	4f/	4cc\	4A\	po-	4A\	po-	4cc\	po-	.	.
4F\	4cc\	8ff\L	8F\	-pu-	8A\	-pu-	8ff\	-pu-	.	.
.	.	8ee\J	8F\	-li	8c\	-li	8ee\	-li	.	.
=55	=55	=55	=55	=55	=55	=55	=55	=55	=55	=55
!LO:TX:a:t=SIC:s:B-	!	!	!	!	!	!	!	!	!	!
4B\	8ff\L	8ff\L	4B-X\	po-	8B\L	po-	8dd\L	po-	.	.
.	8ee\	8gg\	.	.	8G\J	.	8ee\J	.	.	.
8F\L	8ff\	8aa\	8A\	-pu-	8A\	-pu-	8ff\	-pu-	.	.
!LO:TX:a:t=SIC:s:B-	!	!	!	!	!	!	!	!	!	!
8B\J	8gg\J	8bb-X\J	8B-X\	-li	8G\	-li	8b-X\	-li	.	.
4c\	4ff\	4aa\	4c\	su-	4F/	su-	4a\	su-	.	.
4C/	4ee\	4gg\	4C/	-i	4E/	-i	4g\	-i	.	.
=56	=56	=56	=56	=56	=56	=56	=56	=56	=56	=56
4A\	4cc\	4ff\	4A\	po-	4A\	po-	4cc\	po-	00r	00r
4F\	8cc\L	8ff\L	8F\	-pu-	8A\	-pu-	8cc\	-pu-	.	.
.	8cc\J	8ff\J	8F\	-li	8A\	-li	8cc\	-li	.	.
!LO:TX:a:t=SIC:s:B-	!	!	!	!	!	!	!	!	!	!
4B\	8ff\L	8ff\L	4B-X\	po-	8B\L	po-	8dd\L	po-	.	.
.	8ee\	8gg\	.	.	8G\J	.	8ee\J	.	.	.
8A\L	8ff\	8aa\	8A\	-pu-	8A\	-pu-	8ff\	-pu-	.	.
!	!	!LO:TX:a:t=SIC:s:bb-	!	!	!	!	!	!	!	!
8B\J	8gg\J	8bb\J	8B-\	-li	8B\	-li	8gg\	-li	.	.
!	!LO:LB:g=original	!	!LO:LB:g=original	!	!	!	!	!	!	!
=57	=57	=57	=57	=57	=57	=57	=57	=57	=57	=57
4c\	4ff\	4aa\	(4c\	su-	4A\	su-	4ff\	su-	.	.
4C/	4ee\	4gg\	4C/)	.	4G\	.	4ee\	.	.	.
8F\L	4ff\	4aa\	4F\	-i	4A\	-i	4ff\	-i	.	.
8G\	.	.	.	.	.	.	.	.	.	.
8A\	8r	8r	4r	.	4r	.	4r	.	.	.
8F\J	8cc\	8cc\	.	.	.	.	.	.	.	.
!	!	!LO:LB:g=original	!	!	!	!	!	!	!	!
=58	=58	=58	=58	=58	=58	=58	=58	=58	=58	=58
!LO:TX:a:t=SIC:s:B-	!	!	!	!	!	!	!	!	!	!
8B\L	8cc\L	4dd\	00r	.	00r	.	00r	.	.	.
!	!LO:TX:a:t=SIC:s:b-	!	!	!	!	!	!	!	!	!
8G\	8b\	.	.	.	.	.	.	.	.	.
!	!LO:TX:a:t=SIC:s:b-	!	!	!	!	!	!	!	!	!
8A\	8b\	4cc\	.	.	.	.	.	.	.	.
8F\J	8a\J	.	.	.	.	.	.	.	.	.
!	!	!LO:TX:a:t=SIC:s:b-	!	!	!	!	!	!	!	!
8G\L	8a/L	4b\	.	.	.	.	.	.	.	.
8C\	8g/	.	.	.	.	.	.	.	.	.
8F\	8f/	4a\	.	.	.	.	.	.	.	.
8A\J	8cc/J	.	.	.	.	.	.	.	.	.
=59	=59	=59	=59	=59	=59	=59	=59	=59	=59	=59
!LO:TX:a:t=SIC:s:B-	!	!	!	!	!	!	!	!	!	!
8B\L	8cc/L	4dd\	.	.	.	.	.	.	.	.
!	!LO:TX:a:t=SIC:s:b-	!	!	!	!	!	!	!	!	!
8G\	8b/	.	.	.	.	.	.	.	.	.
!	!LO:TX:a:t=SIC:s:b-	!	!	!	!	!	!	!	!	!
8A\	8b/	4cc\	.	.	.	.	.	.	.	.
8F\J	8a/J	.	.	.	.	.	.	.	.	.
!	!	!LO:TX:a:t=SIC:s:b-	!	!	!	!	!	!	!	!
8G\L	8a/L	4b\	.	.	.	.	.	.	.	.
8C\	8g/	.	.	.	.	.	.	.	.	.
8F\	8f/	8a\L	.	.	.	.	.	.	.	.
8A\J	8cc/J	8cc\J	.	.	.	.	.	.	.	.
=60	=60	=60	=60	=60	=60	=60	=60	=60	=60	=60
!LO:TX:a:t=SIC:s:B-	!	!	!	!	!	!	!	!	!	!
!LO:TX:a:t=problem:mixed beam	!	!	!	!	!	!	!	!	!	!
8B\L	16dd\LL	16dd\LL	.	.	.	.	.	.	00r	00r
.	32ee\L	32ee\L	.	.	.	.	.	.	.	.
.	32ff\J	32ff\J	.	.	.	.	.	.	.	.
!LO:TX:a:t=SIC:s:BB-	!	!	!	!	!	!	!	!	!	!
8BB/	16gg\	16gg\	.	.	.	.	.	.	.	.
.	16ff\JJ	16ff\JJ	.	.	.	.	.	.	.	.
8C/	16ee\LL	16ee\LL	.	.	.	.	.	.	.	.
.	32ff\L	32ff\L	.	.	.	.	.	.	.	.
.	32gg\J	32gg\J	.	.	.	.	.	.	.	.
8C/J	16aa\	16aa\	.	.	.	.	.	.	.	.
.	16gg\JJ	16gg\JJ	.	.	.	.	.	.	.	.
8D\L	16ff\LL	16ff\LL	.	.	.	.	.	.	.	.
.	32gg\L	32gg\L	.	.	.	.	.	.	.	.
.	32aa\J	32aa\J	.	.	.	.	.	.	.	.
8D\	16bb-X\	16bb-X\	.	.	.	.	.	.	.	.
.	16aa\JJ	16aa\JJ	.	.	.	.	.	.	.	.
8E\	16gg\LL	16gg\LL	.	.	.	.	.	.	.	.
.	32aa\L	32aa\L	.	.	.	.	.	.	.	.
.	32bb-\J	32bb-\J	.	.	.	.	.	.	.	.
8E\J	16ccc\	16ccc\	.	.	.	.	.	.	.	.
.	16bb-\JJ	16bb-X\JJ	.	.	.	.	.	.	.	.
=61	=61	=61	=61	=61	=61	=61	=61	=61	=61	=61
8F\L	8aa\L	8aa\L	.	.	.	.	.	.	.	.
8F\	8ff\	8ff\	.	.	.	.	.	.	.	.
8A\	8ff\	8ff\	.	.	.	.	.	.	.	.
8c\J	8ff\J	8ff\J	.	.	.	.	.	.	.	.
8A\L	4ff\	4ff\	.	.	.	.	.	.	.	.
8F\	.	.	.	.	.	.	.	.	.	.
8A\	16ee\LL	16ee\LL	.	.	.	.	.	.	.	.
.	16dd\	16dd\	.	.	.	.	.	.	.	.
!LO:TX:a:t=SIC:s:B-	!	!	!	!	!	!	!	!	!	!
8B\J	16cc\	16cc\	.	.	.	.	.	.	.	.
!	!LO:TX:a:t=SIC:s:b-	!LO:TX:a:t=SIC:s:b-	!	!	!	!	!	!	!	!
.	16b\JJ	16b\JJ	.	.	.	.	.	.	.	.
=62	=62	=62	=62	=62	=62	=62	=62	=62	=62	=62
4c\	8a/L	8a/L	00r	.	2r	.	00r	.	.	.
.	16g/L	16g/L	.	.	.	.	.	.	.	.
.	16f/JJ	16f/JJ	.	.	.	.	.	.	.	.
4C/	4g/	4g/	.	.	.	.	.	.	.	.
4F\	4f/	4f/	.	.	4r	.	.	.	.	.
4r	4r	4r	.	.	8r	.	.	.	.	.
!	!	!	!	!	!LO:TX:a:t=Solo	!	!	!	!	!
.	.	.	.	.	8c\	qui	.	.	.	.
!LO:LB:g=original	!	!	!	!	!	!	!	!	!	!
=63	=63	=63	=63	=63	=63	=63	=63	=63	=63	=63
4F\	4a/	4cc\	.	.	4f\	ha-	.	.	.	.
4r	4r	4r	.	.	16F/LL	-bi-	.	.	.	.
.	.	.	.	.	16G/	.	.	.	.	.
.	.	.	.	.	16A/	.	.	.	.	.
.	.	.	.	.	16B/JJ	.	.	.	.	.
8r	8r	8r	.	.	16c\LL	-ta-	.	.	.	.
.	.	.	.	.	16A\JJ	.	.	.	.	.
8F\L	8a/L	8cc\L	.	.	8F\	-re	.	.	.	.
8F\	8a/	8cc\	.	.	8c\	fa-	.	.	.	.
!LO:TX:a:t=SIC:s:B-	!	!	!	!	!	!	!	!	!	!
8B\J	8dd/J	8ff\J	.	.	8f\	-cit	.	.	.	.
!	!	!	!	!	!LO:LB:g=original	!	!	!	!	!
=64	=64	=64	=64	=64	=64	=64	=64	=64	=64	=64
4c\	8cc\L	8ee\L	.	.	8e\	ste-	.	.	00r	00r
!	!LO:TX:a:t=SIC:s:b-	!	!	!	!	!	!	!	!	!
.	8b\	8dd\	.	.	8d\	-ri-	.	.	.	.
4C/	8a\	8cc\	.	.	8c\	-lem	.	.	.	.
!	!	!LO:TX:a:t=SIC:s:b-	!	!	!	!	!	!	!	!
.	8g\J	8b\J	.	.	8B\	in	.	.	.	.
4F\	4f/	4a/	.	.	8A\	do-	.	.	.	.
.	.	.	.	.	8F\	-mo	.	.	.	.
8G\L	8dd\L	8bn\L	.	.	8Bn\	fa-	.	.	.	.
8G\J	8cc\J	8cc\J	.	.	8c\	-cit	.	.	.	.
!	!LO:LB:g=original	!	!	!	!	!	!	!	!	!
=65	=65	=65	=65	=65	=65	=65	=65	=65	=65	=65
8G\L	8b\L	8dd\L	.	.	8d\	ste-	.	.	.	.
8G\	8cc\	8ee\	.	.	8e\	-ri-	.	.	.	.
8G\	8dd\	8ff\	.	.	8f\	-lem	.	.	.	.
8G\J	8dd\J	8ff\J	.	.	8d\	in	.	.	.	.
4C/	4cc\	4ee\	.	.	8e\	Do-	.	.	.	.
.	.	.	.	.	8c\	-mo	.	.	.	.
8E\L	4r	4r	.	.	8g\	ma-	.	.	.	.
8F\J	.	.	.	.	8a\	-trem	.	.	.	.
=66	=66	=66	=66	=66	=66	=66	=66	=66	=66	=66
4G\	0r	0r	00r	.	4Bn\	fi-	00r	.	.	.
4A\	.	.	.	.	4c\	-li-	.	.	.	.
4BBn/	.	.	.	.	4g\	-o-	.	.	.	.
4C/	.	.	.	.	8a\	-rum	.	.	.	.
.	.	.	.	.	8a\	lae-	.	.	.	.
=67	=67	=67	=67	=67	=67	=67	=67	=67	=67	=67
4G\	.	.	.	.	4B\	-tan-	.	.	.	.
8A\L	.	.	.	.	8c\	-tem	.	.	.	.
8F\J	.	.	.	.	8f\	lae-	.	.	.	.
4G\	.	.	.	.	(4e\	-tan-	.	.	.	.
4GG/	.	.	.	.	4d\)	.	.	.	.	.
!	!	!LO:LB:g=original	!	!	!	!	!	!	!	!
=68	=68	=68	=68	=68	=68	=68	=68	=68	=68	=68
8C\L	4ccc\	4ccc\	.	.	4c\	-tem	.	.	4cc\	4ee\
8D\	.	.	.	.	.	.	.	.	.	.
8E\	16cc\LL	16cc\LL	.	.	4r	.	.	.	4r	4r
.	16dd\	16dd\	.	.	.	.	.	.	.	.
8D\J	16ee\	16ee\	.	.	.	.	.	.	.	.
.	16ff\JJ	16ff\JJ	.	.	.	.	.	.	.	.
8C\L	16gg\LL	16gg\LL	.	.	2r	.	.	.	8r	8r
.	16ee\J	16ee\J	.	.	.	.	.	.	.	.
8C\	8cc\J	8cc\J	.	.	.	.	.	.	8ee\L	8gg\L
8F\	16aa\LL	16aa\LL	.	.	.	.	.	.	8ff\	8aa\
.	16ff\J	16ff\J	.	.	.	.	.	.	.	.
8F\J	8cc\J	8cc\J	.	.	.	.	.	.	8ff\J	8aa\J
=69	=69	=69	=69	=69	=69	=69	=69	=69	=69	=69
8C\L	16gg\LL	16gg\LL	.	.	00r	.	.	.	4ee\	4gg\
.	16ee\J	16ee\J	.	.	.	.	.	.	.	.
8D\	8cc\J	8cc\J	.	.	.	.	.	.	.	.
8E\	16cc\LL	16cc\LL	.	.	.	.	.	.	4r	4r
.	16dd\	16dd\	.	.	.	.	.	.	.	.
8D\J	16ee\	16ee\	.	.	.	.	.	.	.	.
.	16ff\JJ	16ff\JJ	.	.	.	.	.	.	.	.
8C\L	16gg\LL	16gg\LL	.	.	.	.	.	.	8r	8r
.	16ee\J	16ee\J	.	.	.	.	.	.	.	.
8C\	8cc\J	8cc\J	.	.	.	.	.	.	8ee\L	8gg\L
8F\	16aa\LL	16aa\LL	.	.	.	.	.	.	8ff\	8aa\
.	16ff\J	16ff\J	.	.	.	.	.	.	.	.
8F\J	8cc\J	8cc\J	.	.	.	.	.	.	8ff\J	8aa\J
=70	=70	=70	=70	=70	=70	=70	=70	=70	=70	=70
8C\L	16gg\LL	16gg\LL	00r	.	.	.	00r	.	8ee\L	8gg\L
.	16ee\J	16ee\J	.	.	.	.	.	.	.	.
8C\	8cc\J	8cc\J	.	.	.	.	.	.	16ee\L	16gg\L
.	.	.	.	.	.	.	.	.	16ee\JJ	16gg\JJ
8E\	8r	8r	.	.	.	.	.	.	8ee\L	8gg\L
8E\J	8ccc\	8ccc\	.	.	.	.	.	.	8ee\J	8gg\J
8F\L	16dd\LL	16dd\LL	.	.	.	.	.	.	4dd\	4ff\
.	16cc\	16cc\	.	.	.	.	.	.	.	.
8F\	16b\	16b\	.	.	.	.	.	.	.	.
.	16a\JJ	16a\JJ	.	.	.	.	.	.	.	.
!	!LO:TX:a:t=problem:mixed beam	!LO:TX:a:t=problem:mixed beam	!	!	!	!	!	!	!	!
8G\	8g/L	8g/L	.	.	.	.	.	.	4g/	4dd\
8G\J	8dd\J	8ff\J	.	.	.	.	.	.	.	.
=71	=71	=71	=71	=71	=71	=71	=71	=71	=71	=71
8C\L	4ee\	4ee\	.	.	.	.	.	.	8cc\L	8ee\L
8D\	.	.	.	.	.	.	.	.	8cc\J	8ee\J
8E\	8r	8r	.	.	.	.	.	.	4cc\	4ee\
8C\J	8gg\	8gg\	.	.	.	.	.	.	.	.
8F\L	8gg\L	4aa\	.	.	.	.	.	.	2r	2r
8D\	8ff\	.	.	.	.	.	.	.	.	.
8E\	8ff\	4gg\	.	.	.	.	.	.	.	.
8C\J	8ee\J	.	.	.	.	.	.	.	.	.
!LO:LB:g=original	!	!	!	!	!	!	!	!	!	!
=72	=72	=72	=72	=72	=72	=72	=72	=72	=72	=72
!LO:TX:a:t=problem:mixed beam	!	!	!	!	!	!	!	!	!	!
8D\L	8ee\L	4ff\	.	.	.	.	.	.	1r	1r
8GG/	8dd\	.	.	.	.	.	.	.	.	.
8C/	8cc\	4ee\	.	.	.	.	.	.	.	.
8E/J	8gg\J	.	.	.	.	.	.	.	.	.
8F\L	8gg\L	4aa\	.	.	.	.	.	.	.	.
8D\	8ff\	.	.	.	.	.	.	.	.	.
8E\	8ff\	4gg\	.	.	.	.	.	.	.	.
8C\J	8ee\J	.	.	.	.	.	.	.	.	.
=73	=73	=73	=73	=73	=73	=73	=73	=73	=73	=73
!LO:TX:a:t=problem:mixed beam	!	!	!	!	!	!	!	!	!	!
8D\L	8ee\L	4ff\	.	.	00r	.	.	.	2r	2r
8GG/J	8dd\	.	.	.	.	.	.	.	.	.
4C/	8cc\	8ee\L	.	.	.	.	.	.	.	.
.	8gg\J	8gg\J	.	.	.	.	.	.	.	.
8C/L	16gg\LL	16gg\LL	.	.	.	.	.	.	4cc\	4ee\
.	16ff\	16ff\	.	.	.	.	.	.	.	.
8C/	16ee\	16ee\	.	.	.	.	.	.	.	.
.	16dd\JJ	16dd\JJ	.	.	.	.	.	.	.	.
8E/	16cc\LL	16cc\LL	.	.	.	.	.	.	4r	4r
.	16b-X\	16b-X\	.	.	.	.	.	.	.	.
8E/J	16a\	16a\	.	.	.	.	.	.	.	.
.	16g\JJ	16g\JJ	.	.	.	.	.	.	.	.
!	!LO:LB:g=original	!	!	!	!	!	!	!	!	!
=74	=74	=74	=74	=74	=74	=74	=74	=74	=74	=74
8F\L	16f/LL	16f/LL	00r	.	.	.	00r	.	8cc\L	8ff\L
.	16e/JJ	16e/JJ	.	.	.	.	.	.	.	.
8G\	4f/	4f/	.	.	.	.	.	.	16cc\L	16ff\L
.	.	.	.	.	.	.	.	.	16cc\JJ	16ff\JJ
8A\	.	.	.	.	.	.	.	.	8cc\L	8ff\L
8F\J	8aa\	8aa\	.	.	.	.	.	.	8cc\J	8ff\J
8D\L	16aa\LL	16aa\LL	.	.	.	.	.	.	4dd\	4ff#X\
.	16gg\	16gg\	.	.	.	.	.	.	.	.
8D\	16ff#X\	16ff#X\	.	.	.	.	.	.	.	.
.	16ee\JJ	16ee\JJ	.	.	.	.	.	.	.	.
8F#X\	16dd\LL	16dd\LL	.	.	.	.	.	.	4r	4r
.	16cc\	16cc\	.	.	.	.	.	.	.	.
!	!LO:TX:a:t=problem:kasownik nad nutą	!	!	!	!	!	!	!	!	!
8F#\J	16bn\	16bn\	.	.	.	.	.	.	.	.
.	16a\JJ	16a\JJ	.	.	.	.	.	.	.	.
!	!	!LO:LB:g=original	!	!	!	!	!	!	!	!
=75	=75	=75	=75	=75	=75	=75	=75	=75	=75	=75
8G\L	16g/LL	16g/LL	.	.	.	.	.	.	8dd\L	8gg\L
!	!LO:TX:a:t=problem:# pod nutą	!	!	!	!	!	!	!	!	!
.	16f#X/JJ	16f#X/JJ	.	.	.	.	.	.	.	.
8A\	4g/	4g/	.	.	.	.	.	.	16dd\L	16gg\L
.	.	.	.	.	.	.	.	.	16dd\JJ	16gg\JJ
8B\	.	.	.	.	.	.	.	.	8dd\L	8gg\L
8E\J	8g/	8g/	.	.	.	.	.	.	8dd\J	8gg\J
8F\L	16a\LL	16a\LL	.	.	.	.	.	.	2r	2r
.	32b\L	32b\L	.	.	.	.	.	.	.	.
.	32cc\J	32cc\J	.	.	.	.	.	.	.	.
8F\	16dd\	16dd\	.	.	.	.	.	.	.	.
.	16cc\JJ	16cc\JJ	.	.	.	.	.	.	.	.
8G\	16b\LL	16b\LL	.	.	.	.	.	.	.	.
.	32cc\L	32cc\L	.	.	.	.	.	.	.	.
.	32dd\J	32dd\J	.	.	.	.	.	.	.	.
8G\J	16ee\	16ee\	.	.	.	.	.	.	.	.
.	16dd\JJ	16dd\JJ	.	.	.	.	.	.	.	.
!	!	!	!	!	!	!	!	!	!LO:LB:g=original	!
=76	=76	=76	=76	=76	=76	=76	=76	=76	=76	=76
8A\L	16cc\LL	16cc\LL	.	.	.	.	.	.	2r	2r
.	32dd\L	32dd\L	.	.	.	.	.	.	.	.
.	32ee\J	32ee\J	.	.	.	.	.	.	.	.
8A\	16ff\	16ff\	.	.	.	.	.	.	.	.
.	16ee\JJ	16ee\JJ	.	.	.	.	.	.	.	.
8B\	16dd\LL	16dd\LL	.	.	.	.	.	.	.	.
.	32ee\L	32ee\L	.	.	.	.	.	.	.	.
.	32ff\J	32ff\J	.	.	.	.	.	.	.	.
8B\J	16gg\	16gg\	.	.	.	.	.	.	.	.
.	16ff\JJ	16ff\JJ	.	.	.	.	.	.	.	.
!LO:TX:a:t=problem:mixed beam	!	!	!	!	!	!	!	!	!	!
8c\L	8ee\L	8ee\L	.	.	.	.	.	.	8r	8r
8C/	8ccc\	8ccc\	.	.	.	.	.	.	8cc\L	8ee\L
8E/	8ccc\	8ccc\	.	.	.	.	.	.	8cc\	8ee\
8G/J	8ccc\J	8ccc\J	.	.	.	.	.	.	8cc\J	8ee\J
!	!	!	!	!	!	!	!	!	!	!LO:LB:g=original
=77	=77	=77	=77	=77	=77	=77	=77	=77	=77	=77
8E\L	4ccc\	4ccc\	.	.	1r	.	.	.	4cc\	4ee\
8C\	.	.	.	.	.	.	.	.	.	.
8E\	16bb\LL	16bb\LL	.	.	.	.	.	.	8ee\L	8gg\L
.	16aa\	16aa\	.	.	.	.	.	.	.	.
8F\J	16gg\	16gg\	.	.	.	.	.	.	8dd\J	8ff\J
.	16ff\JJ	16ff\JJ	.	.	.	.	.	.	.	.
4G\	8ee\L	8ee\L	.	.	.	.	.	.	4cc\	4ee\
.	16dd\L	16dd\L	.	.	.	.	.	.	.	.
.	16cc\JJ	16cc\JJ	.	.	.	.	.	.	.	.
!	!LO:TX:a:t=t	!LO:TX:a:t=t	!	!	!	!	!	!	!	!
4GG/	4dd\	4dd\	.	.	.	.	.	.	4g/	4dd\
!	!	!	!	!	!LO:LB:g=original	!	!	!	!	!
=78	=78	=78	=78	=78	=78	=78	=78	=78	=78	=78
!	!	!	!	!	!LO:TX:a:t=problem:do końca tekst podpisany innym atramentem	!	!	!	!	!
8C\L	4cc\	4cc\	4C\	Glo-	4c\	glo-	4ee\	Glo-	4cc\	4ee\
8D\	.	.	.	.	.	.	.	.	.	.
8E\	16cc\LL	16cc\LL	8E\	-ri-	8c\	-ri-	8ee\	-ri-	4r	4r
.	16dd\	16dd\	.	.	.	.	.	.	.	.
8D\J	16ee\	16ee\	8D\	-a	8d\	-a	8ff\	-a	.	.
.	16ff\JJ	16ff\JJ	.	.	.	.	.	.	.	.
8C\L	16gg\LL	16gg\LL	4C\	pa-	4e\	Pa-	4gg\	Pa-	8r	8r
.	16ee\J	16ee\J	.	.	.	.	.	.	.	.
8C\	8cc\J	8cc\J	.	.	.	.	.	.	8ee\L	8gg\L
!	!	!	!	!	!	!	!LO:LB:g=original	!	!	!
8F\	16aa\LL	16aa\LL	8F\	-tri	8f\	-tri	8aa\	-tri	8ff\	8aa\
.	16ff\J	16ff\J	.	.	.	.	.	.	.	.
8F\J	8cc\J	8cc\J	8F\	et	8f\	et	8aa\	et	8ff\J	8aa\J
=79	=79	=79	=79	=79	=79	=79	=79	=79	=79	=79
8C\L	16gg\LL	16gg\LL	8C\	fi-	16e\	fi-	16gg\	fi-	4ee\	4gg\
.	16ee\J	16ee\J	.	.	16d\	-li-	16ff\	-li-	.	.
8D\	8cc\J	8cc\J	16D\	-li-	8c\	-o	8ee\	-o	.	.
.	.	.	16D\	-o	.	.	.	.	.	.
8E\	16cc\LL	16cc\LL	8E\	et	8c\	et	8ee\	et	4r	4r
.	16dd\	16dd\	.	.	.	.	.	.	.	.
8D\J	16ee\	16ee\	8D\	spi-	8d\	spi-	8ff\	spi-	.	.
.	16ff\JJ	16ff\JJ	.	.	.	.	.	.	.	.
8C\L	16gg\LL	16gg\LL	4C/	-ri-	4e\	-ri-	4gg\	-ri-	8r	8r
.	16ee\J	16ee\J	.	.	.	.	.	.	.	.
8C\	8cc\J	8cc\J	.	.	.	.	.	.	8ee\L	8gg\L
8F\	16aa\LL	16aa\LL	8F\	-tu-	8f\	-tu-	8aa\	-tu-	8ff\	8aa\
.	16ff\J	16ff\J	.	.	.	.	.	.	.	.
8F\J	8cc\J	8cc\J	8F\	-i	8f\	-i	8aa\	-i	8ff\J	8aa\J
!	!LO:LB:g=original	!	!	!	!	!	!	!	!	!
=80	=80	=80	=80	=80	=80	=80	=80	=80	=80	=80
8C\L	16gg\LL	16gg\LL	8C/	San-	(16e\LL	san-	16gg\LL	San-	8ee\L	8gg\L
.	16ee\J	16ee\J	.	.	16d\JJ)	.	16ff\JJ	.	.	.
8C\	8cc\J	8cc\J	8C/	-cto	4c\	-cto	4ee\	-cto	16ee\L	16gg\L
.	.	.	.	.	.	.	.	.	16ee\JJ	16gg\JJ
8E\	4ccc\	4ccc\	4c\	Spi-	.	.	.	.	8ee\L	8gg\L
8E\J	.	.	.	.	8c\	spi-	8ee\	si-	8ee\J	8gg\J
!LO:LB:g=original	!	!	!	!	!	!	!	!	!	!
8F\L	16dd\LL	16dd\LL	8F\	-ri-	8B\	-ri-	8dd\	-cut	4dd\	4ff\
.	16cc\	16cc\	.	.	.	.	.	.	.	.
8F\	16b\	16b\	16F\	-tu-	16c\	-tu-	16ee\	e-	.	.
.	16a\JJ	16a\JJ	16F\	-i	16c\	-i	16ee\	-rat	.	.
!	!LO:TX:a:t=problem:mixed beam	!LO:TX:a:t=problem:mixed beam	!	!	!	!	!	!	!	!
8G\	8g/L	8g/L	4G\	San-	4d\	San-	4ff\	in	4g/	4dd\
8G\J	8dd\J	8ff\J	.	.	.	.	.	.	.	.
!	!	!LO:LB:g=original	!	!	!	!	!	!	!	!
=81	=81	=81	=81	=81	=81	=81	=81	=81	=81	=81
4C\	4cc\	4ee\	4C/	-cto	4c\	-cto	4ee\	prin-	4cc\	4ee\
4c\	16ee\LL	16ee\LL	8c\	si-	8B\	si-	8ee\	-ci-	8cc\L	8ee\L
.	16dd\	16dd\	.	.	.	.	.	.	.	.
.	16cc\	16cc\	8c\	-cut	8B\	-cut	8gg\	-pi-	8cc\J	8ee\J
.	16gg\JJ	16gg\JJ	.	.	.	.	.	.	.	.
!	!LO:TX:a:t=SIC:s-ff#	!LO:TX:a:t=SIC:s-ff#	!	!	!	!	!	!	!	!
4d\	16ff\LL	16ff\LL	8d\	e-	8A\	e-	8ff#X\	-o	8dd\L	8dd\L
.	16gg\	16gg\	.	.	.	.	.	.	.	.
.	16aa\	16aa\	8d\	-rat	8A\	-rat	8ee\	et	8dd\	8dd\
.	16gg\JJ	16gg\JJ	.	.	.	.	.	.	.	.
!	!LO:TX:a:t=SIC:s-ff#	!LO:TX:a:t=SIC:s-ff#	!	!	!	!	!	!	!	!
4D\	16ff\LL	16ff\LL	8D\	in	8B\	in	8dd\	nunc	8dd\	8dd\
.	16ee\	16ee\	.	.	.	.	.	.	.	.
.	16dd\	16dd\	8D\	prin-	8A\	prin-	8cc\	et	8dd\J	8dd\J
.	16cc\JJ	16cc\JJ	.	.	.	.	.	.	.	.
=82	=82	=82	=82	=82	=82	=82	=82	=82	=82	=82
4G\	16b\LL	16b\LL	8G\	-ci-	16G\	-ci-	16b\	sem-	4g/	4dd\
.	16cc\J	16cc\J	.	.	16A\	-pi-	16cc\	-per	.	.
.	8dd\J	8dd\J	16G\	-pi-	8B\	-o	8dd\	et	.	.
.	.	.	16G\	-o	.	.	.	.	.	.
4c\	32ee\LLL	32ee\LLL	4c\	et	4B\	et	8ee\L	in	8cc\L	8ee\L
.	32ff\JJ	32ff\JJ	.	.	.	.	.	.	.	.
.	8.gg\J	8.gg\J	.	.	.	.	.	.	.	.
.	.	.	.	.	.	.	8gg\J	.	8cc\J	8ee\J
!	!	!	!LO:LB:g=original	!	!LO:LB:g=original	!	!	!	!	!
4d\	16ff#X\LL	16ff#X\LL	8d\	nunc	8A\	nunc	8ff#X\	Sae-	8dd\L	8dd\L
.	16gg\	16gg\	.	.	.	.	.	.	.	.
!	!	!	!	!	!LO:TX:a:t=problem:nieczytelny tekst	!	!	!	!	!
.	16aa\	16aa\	8d\	et	8A\	et	8ee\	-cu-	8dd\	8dd\
.	16gg\JJ	16gg\JJ	.	.	.	.	.	.	.	.
!	!	!	!	!	!	!	!LO:LB:g=original	!	!	!
4D\	16ff#\LL	16ff#\LL	8D\	nunc	8B\	nunc	8dd\	-la	8dd\	8dd\
.	16ee\	16ee\	.	.	.	.	.	.	.	.
.	16dd\	16dd\	8D\	et	8A\	et	8cc\	Sae-	8dd\J	8dd\J
.	16cc\JJ	16cc\JJ	.	.	.	.	.	.	.	.
=83	=83	=83	=83	=83	=83	=83	=83	=83	=83	=83
4G\	8cc\L	8cc\L	8G\	Sem-	8A\	sem-	8cc\	-cu-	4g/	4dd\
.	8b\J	8b\J	8G\	-per	8G\	-per	8b\	-lo-	.	.
8D\L	16g\LL	16b\LL	8d\	et	8G\	et	8cc\	-rum	4r	4r
.	16a\	16cc\	.	.	.	.	.	.	.	.
8C\J	16b\	16dd\	8c\	in	8B\	in	8dd\	.	.	.
.	16cc\JJ	16ee\JJ	.	.	.	.	.	.	.	.
!	!	!	!	!	!LO:N:vis=4	!	!	!	!	!
8BB/L	8dd\	8ff\	8B\L	sae-	4.d\	Sae-	4.ffn\	a-	8g/L	8dd\L
8AA/	4ff\	4ddd\	8A\J	.	.	.	.	.	8g/	8dd\
8BB/	.	.	8B\L	-cu-	.	.	.	.	8g/	8dd\
8GG/J	8dd\	8ff\	8G\J	.	8d\	-cu-	8ff\	.	8g/J	8dd\J
=84	=84	=84	=84	=84	=84	=84	=84	=84	=84	=84
8C\L	8cc\L	8ee\L	4c\	-la	4c\	-la	4ee\	-men	4cc\	4ee\
8D\	8dd\J	8ff\J	.	.	.	.	.	.	.	.
8E\	8ee\L	8gg\L	8r	.	8r	.	8r	.	4r	4r
8C\J	8gg\J	8ccc\J	8E\	sae-	8g\	sae-	8gg\	a-	.	.
8F\L	8gg\L	4ccc\	(8F\L	.	(8g\L	.	4aa\	.	2r	2r
8D\	8ff\	.	8D\J)	.	8f\)	.	.	.	.	.
8E\	8ff\	4gg\	(8E\L	-cu-	8f\	-cu-	4gg\	.	.	.
8C\J	8ee\J	.	8C\J)	.	8e\J	.	.	.	.	.
!	!	!	!	!	!	!	!	!	!LO:LB:g=original	!
=85	=85	=85	=85	=85	=85	=85	=85	=85	=85	=85
!LO:TX:a:t=problem:mixed beam	!	!	!	!	!	!	!	!	!	!
8D\L	8ee\L	4ff\	8D\L	-lo-	8e\L	-lo-	4ff\	-a-	4dd\	4ff\
8GG/	8dd\	.	8G\J	.	8d\J	.	.	.	.	.
8C/	8cc\	4ee\	8C\	-rum	8c\	-rum	4ee\	-men	4cc\	4ee\
8E/J	8gg\J	.	8E\	a-	8g\	a-	.	.	.	.
8F\L	8gg\L	4aa\	(8F\L	.	(8g\L	.	4aa\	.	2r	2r
8D\	8ff\	.	8D\)	.	8f\	.	.	.	.	.
8E\	8ff\	4gg\	(8E\	.	8f\	.	4gg\	a-	.	.
8C\J	8ee\J	.	8C\J)	.	8e\J)	.	.	.	.	.
!	!	!	!	!	!	!	!	!	!	!LO:LB:g=original
=86	=86	=86	=86	=86	=86	=86	=86	=86	=86	=86
8D/L	8ee\L	4ff\	8D\L	.	(8e\L	.	4ff\	.	4dd\	4ff\
8GG/	8dd\J	.	8G\J	.	8d\J	.	.	.	.	.
8C/	4cc\	4ee\	4C/	-men	4c\)	-men	4ee\	-men	4cc\	4ee\
8G/J	.	.	.	.	.	.	.	.	.	.
!LO:TX:a:t=problem:mixed beam	!	!	!LO:TX:a:t=problem:mixed beam	!	!	!	!	!	!	!
8c\L	8ee\L	8ee\L	8c\L	a-	4c\	a-	4ee\	.	8cc\L	8ee\L
8C/	8ccc\	8ccc\	8C/J	.	.	.	.	.	8cc\	8ee\
8E/	8ccc\	8ccc\	8E\L	-men	4c\	-men	4ee\	a-	8cc\	8ee\
8G/J	8ccc\J	8ccc\J	8G\J	.	.	.	.	.	8cc\J	8ee\J
!	!LO:LB:g=original	!	!	!	!	!	!	!	!	!
=87	=87	=87	=87	=87	=87	=87	=87	=87	=87	=87
8E\L	4ccc\	4ccc\	8E\L	a-	4c\	a-	4ee\	.	4cc\	4ee\
8C\	.	.	8C\J	.	.	.	.	.	.	.
8E\	16bb\LL	16bb\LL	8E\L	-men	8c\L	-men	8ee\L	-men	8ee\L	8gg\L
.	16aa\	16aa\	.	.	.	.	.	.	.	.
8F\J	16gg\	16gg\	8F\J	.	8d\J	.	8ff\J	.	8dd\J	8ff\J
.	16ff\JJ	16ff\JJ	.	.	.	.	.	.	.	.
4G\	4ee\	4ee\	4G\	a-	4c\	a-	4ee\	.	4cc\	4ee\
!	!	!LO:TX:a:t=t	!	!	!	!	!	!	!	!
4GG/	4dd\	4dd\	4GG/	.	4B\	.	4dd\	a-	4g/	4dd\
=88	=88	=88	=88	=88	=88	=88	=88	=88	=88	=88
4C/	4cc\	4cc\	4C/	-men	4c\	-men	4cc\	-men	4cc\	4ee\
4r	4r	4r	4r	.	4r	.	4r	.	4r	4r
2r	2r	2r	2r	.	2r	.	2r	.	2r	2r
==	==	==	==	==	==	==	==	==	==	==
*-	*-	*-	*-	*-	*-	*-	*-	*-	*-	*-
!!!system-decoration: [(g1)][(g2)][(g3)]{g4}
!!!RDF**kern: >= above
!!!RDF**kern: <=below
!!!ENC: Anna Matuszewska
!!!END: 2020-08-10
